packages/icons/raw/imported/FilesCase.svg

<svg width="32" height="32" viewBox="0 0 32 32" fill="none" xmlns="http://www.w3.org/2000/svg">
<path d="M6.50001 12.4231H6.00001H6.50001ZM6.50001 22.5H7.00001H6.50001ZM22.5 25.5V25V25.5ZM9.50001 25.5V26V25.5ZM25.5 12.4231H25H25.5ZM25.5 22.5H26H25.5ZM22.5 9.42312V9.92312V9.42312ZM9.50002 9.4231L9.50002 8.9231L9.50002 9.4231ZM17.4616 6.5V6V6.5ZM14.5385 6.5V7V6.5ZM6.00001 12.4231L6.00001 22.5H7.00001L7.00001 12.4231H6.00001ZM22.5 25L9.50001 25V26L22.5 26V25ZM25 12.4231V22.5H26V12.4231H25ZM22.5 8.92312L9.50002 8.9231L9.50002 9.9231L22.5 9.92312V8.92312ZM26 12.4231C26 10.4901 24.433 8.92313 22.5 8.92312V9.92312C23.8807 9.92313 25 11.0424 25 12.4231H26ZM7.00001 12.4231C7.00001 11.0424 8.1193 9.9231 9.50002 9.9231L9.50002 8.9231C7.56702 8.9231 6.00001 10.4901 6.00001 12.4231H7.00001ZM6.00001 22.5C6.00001 24.433 7.56702 26 9.50001 26V25C8.1193 25 7.00001 23.8807 7.00001 22.5H6.00001ZM22.5 26C24.433 26 26 24.433 26 22.5H25C25 23.8807 23.8807 25 22.5 25V26ZM13.8077 16.2307L6.5 16.2307L6.5 17.2307L13.8077 17.2307L13.8077 16.2307ZM25.5 16.2307L18.1923 16.2307L18.1923 17.2307L25.5 17.2307L25.5 16.2307ZM17.4616 6L14.5385 6V7L17.4616 7V6ZM20.8847 9.42307C20.8847 7.53256 19.3521 6 17.4616 6V7C18.7998 7 19.8847 8.08485 19.8847 9.42307H20.8847ZM12.1154 9.42308C12.1154 8.08485 13.2003 7 14.5385 7V6C12.648 6 11.1154 7.53257 11.1154 9.42308H12.1154ZM17.6923 17.4616C17.6923 18.3962 16.9346 19.1539 16 19.1539V20.1539C17.4869 20.1539 18.6923 18.9485 18.6923 17.4616H17.6923ZM16 19.1539C15.0654 19.1539 14.3077 18.3962 14.3077 17.4616H13.3077C13.3077 18.9485 14.5131 20.1539 16 20.1539V19.1539ZM14.3077 17.4616C14.3077 16.527 15.0654 15.7693 16 15.7693V14.7693C14.5131 14.7693 13.3077 15.9747 13.3077 17.4616H14.3077ZM16 15.7693C16.9346 15.7693 17.6923 16.527 17.6923 17.4616H18.6923C18.6923 15.9747 17.4869 14.7693 16 14.7693V15.7693Z" fill="black"/>
</svg>

<svg width="32" height="32" fill="none" xmlns="http://www.w3.org/2000/svg"><path d="M6.5 12.423H6h.5Zm0 10.077H7h-.5Zm16 3V25v.5Zm-13 0v.5-.5Zm16-13.077H25h.5Zm0 10.077h.5-.5Zm-3-13.077v.5-.5Zm-13 0v-.5.5ZM17.462 6.5V6v.5Zm-2.923 0V7v-.5ZM6 12.423V22.5h1V12.423H6ZM22.5 25h-13v1h13v-1ZM25 12.423V22.5h1V12.423h-1Zm-2.5-3.5h-13v1h13v-1Zm3.5 3.5a3.5 3.5 0 0 0-3.5-3.5v1a2.5 2.5 0 0 1 2.5 2.5h1Zm-19 0a2.5 2.5 0 0 1 2.5-2.5v-1a3.5 3.5 0 0 0-3.5 3.5h1ZM6 22.5A3.5 3.5 0 0 0 9.5 26v-1A2.5 2.5 0 0 1 7 22.5H6ZM22.5 26a3.5 3.5 0 0 0 3.5-3.5h-1a2.5 2.5 0 0 1-2.5 2.5v1Zm-8.692-9.77H6.5v1h7.308v-1Zm11.692 0h-7.308v1H25.5v-1ZM17.462 6h-2.923v1h2.923V6Zm3.423 3.423A3.423 3.423 0 0 0 17.462 6v1a2.423 2.423 0 0 1 2.423 2.423h1Zm-8.77 0A2.423 2.423 0 0 1 14.54 7V6a3.423 3.423 0 0 0-3.424 3.423h1Zm5.577 8.039c0 .934-.757 1.692-1.692 1.692v1a2.692 2.692 0 0 0 2.692-2.692h-1ZM16 19.154a1.692 1.692 0 0 1-1.692-1.692h-1A2.692 2.692 0 0 0 16 20.154v-1Zm-1.692-1.692c0-.935.757-1.693 1.692-1.693v-1a2.692 2.692 0 0 0-2.692 2.693h1ZM16 15.769c.935 0 1.692.758 1.692 1.693h1A2.692 2.692 0 0 0 16 14.769v1Z" fill="#000"/></svg>
